file-image-marker-outline.svg

<svg fill="currentColor" viewBox="0 0 24 24"><path d="M8.5 12c-.83 0-1.5-.67-1.5-1.5S7.67 9 8.5 9s1.5.67 1.5 1.5S9.33 12 8.5 12m5.5 7c-.57-1.14-1-2.36-1-3.5 0-.16 0-.32.03-.47L12 14l-5 5zm-8 1V4h7v5h5v1.03c.17-.03.33-.03.5-.03.5 0 1 .08 1.5.22V8l-6-6H6a2 2 0 0 0-2 2v16c0 1.11.89 2 2 2h9.91c-.41-.56-.91-1.24-1.36-2zm16-4.5c0 2.6-3.5 6.5-3.5 6.5S15 18.1 15 15.5c0-1.9 1.6-3.5 3.5-3.5s3.5 1.6 3.5 3.5m-2.3.1c0-.6-.6-1.2-1.2-1.2s-1.2.5-1.2 1.2c0 .6.5 1.2 1.2 1.2s1.3-.6 1.2-1.2"/></svg>

<svg  viewBox="0 0 24 24" fill="currentColor"><path  d="M8.5 12C7.67 12 7 11.33 7 10.5S7.67 9 8.5 9 10 9.67 10 10.5 9.33 12 8.5 12M14 19C13.43 17.86 13 16.64 13 15.5C13 15.34 13 15.18 13.03 15.03L12 14L7 19H14M6 20V4H13V9H18V10.03C18.17 10 18.33 10 18.5 10C19 10 19.5 10.08 20 10.22V8L14 2H6C4.89 2 4 2.9 4 4V20C4 21.11 4.89 22 6 22H15.91C15.5 21.44 15 20.76 14.55 20H6M22 15.5C22 18.1 18.5 22 18.5 22S15 18.1 15 15.5C15 13.6 16.6 12 18.5 12S22 13.6 22 15.5M19.7 15.6C19.7 15 19.1 14.4 18.5 14.4S17.3 14.9 17.3 15.6C17.3 16.2 17.8 16.8 18.5 16.8S19.8 16.2 19.7 15.6Z"/></svg>
